X: 93
T: lost slipper, the
M:4/4
L:1/8
C:Bernhart
Z:Bernhart
K:F#min
F2~Fc F2~Fc| BcAc BAFE| FcAc dfed | cdcB cddc| !
F2~Fc F2~Fc| BcAc Bcd2 | f2~fe dcB2 |1 cedc BAFE :|2 cedc
BABc|| !
d2fe dcd2| Bcde fba=g | f2~fe dcB2 | cedc Bcde | !
f2~fe fba=g |fedc BAF2 | Bcfc acfc | dcBA F2Fc :|| !

